X:1
T:Title
%%score ( 1 2 ) { 3 | 4 }
L:1/8
Q:1/4=90
M:6/8
K:C
V:1 treble nm="Grand Piano, Soprano"
V:2 treble 
V:3 treble nm="Choir Pad, Alrante, Benjamin C. Unseld"
V:4 bass 
V:1
 [EG][EG][CE] [DF][EG][FA] | [DB] [Ec]2- [Ec] [EG]2 | G[FB][FA] [FG][DF][^CE] | %3
w: By~Benjamin~Carl~Unseld,~1892 * * * * *|||
 [DF] [_EA]2- [EA] [=EG]2 | [EG][EG][CE] [DF][EG][FA] | [DB] [Ec]2- [Ec] [Ge]2 | %6
w: |||
 [Ge][Gd][Gc] [GB][Gc][GB] | [^FA] G2- G2- G/ z/ | G[FB][FB] [FB][FB][Ec] | %9
w: |||
 [Fd] [Ec]2- [Ec] [EG]2 | [Gc][Gd][Gd] [Gd][Gd][Gc] | [Gd] [Ge]2- [Ge]2- [Ge]/ z/ | %12
w: |||
 [Ge][Ge][Ge] [Ge][Ge][Gf] | [Ge] d2 A [_EB]2 | [_EA][=EG][Ec] [Ge][Af][Ge] | [Fd] [Ec]2- [Ec]3- | %16
w: ||||
 [Ec]3 z3 |] %17
w: |
V:2
 x6 | x6 | x6 | x6 | x6 | x6 | x6 | x6 | x6 | x6 | x6 | x6 | x6 | z F2- F/ z/ z z | x6 | x6 | x6 |] %17
V:3
 CCG, G,CC | G, G,2- G, C2 | CDC B,B,_B, | B,[K:treble] C2- C2- C/ z/ | CC[K:bass]G, G,CC | %5
 G, G,2- G, C2 | CB,A, G,ED | C B,2- B,2- B,/ z/ | B,[K:treble]DD DDC | B, C2- C C2 | %10
 C[K:bass]B,B, B,B,A, | B,[K:treble] C2- C2- C/ z/ | C^CC CCC | ^C D2- D/ z/ =C2 | CCC CB,B, | %15
 B, C2- C3- | C3 z3 |] %17
V:4
 C,C,C, C,C,C, | C, C,2- C, C,2 | E,G,G, G,G,G, | G, C,2- C,2- C,/ z/ | C,C,C, C,C,C, | %5
 C, C,2- C, C,2 | C,D,D, D,D,D, | D, G,2- G,2- G,/ z/ | G,G,G, G,G,G, | G, C,2- C, C,2 | %10
 E,G,G, G,G,G, | .G,3 z3 | z A,A, A,A,A, | A, D,2 F, ^F,2 | ^F,G,G, G,G,G, | G, C,2- C,3- | %16
 C,3 z3 |] %17

